X:1
T:Take On Me
M:4/4
L:1/8
Q:1/4=170
K:A
z6 z3/2C/2-|C2- C/2c3A2-A/2-|A6- A/2zf/2|z/2f/2z/2d/2 z/2B/2z3/2B/2z3/2e/2z|
z/2e/2z3/2e/2z/2g/2 z/2g/2z/2a/2 z/2b/2z/2a/2|z/2a/2z/2a/2 z/2e/2z3/2d/2z3/2f/2z|z/2f/2z3/2f/2z/2e/2 z/2e/2z/2f/2 z/2e/2z/2f/2|z/2f/2z/2d/2 z/2B/2z3/2B/2z3/2e/2z|
z/2e/2z3/2e/2z/2g/2 z/2g/2z/2a/2 z/2b/2z/2a/2|z/2a/2z/2a/2 z/2e/2z3/2d/2z3/2f/2z|z/2f/2z3/2f/2z/2e/2 z/2e/2z/2f/2 z/2e/2z/2f/2|z/2f/2z/2d/2 z/2B/2z3/2B/2z3/2e/2z|
z/2e/2z3/2e/2z/2g/2 z/2g/2z/2a/2 z/2b/2z/2a/2|z/2a/2z/2a/2 z/2f/2z3/2d/2z3/2f/2z|z/2f/2z3/2f/2z/2e/2 z/2e/2z/2e/2 z2|